X:1
T: MacDermot's Hornpipe
C:
R:Reel
Q: 232
K:D
M:4/4
L:1/8
D|df ((3edc) d2 B2|((3ABA) GA FG EF|Dd ((3ddd) ce ((3eee) |
df ed cA Bc|df ((3edc) d2 B2|((3ABA) GA FG EF|DF AF GA Bd|ce ((3ABc) d2 de|
|:f2 fd fg ag|g2 gf gb ag|f2 fd fg ab|ag fe dc BA|
f2 fd fg af|g2 gf gb ag|fa df ((3efe) ce|df ed cA Bc:|
df ((3edc) d2 B2|((3ABA) GA FG EF|Dd ((3ddd) ce ((3eee) |
df ed cA Bc|df ((3edc) d2 B2|((3ABA) GA FG EF|DF AF GA Bd|ce ((3ABc) d3||
